svg/misc/window.svg

<svg width="448" height="512" viewBox="0 0 448 512" version="1.1" xmlns="http://www.w3.org/2000/svg"><path fill="currentColor" d="M400,480l-352,0c-26.51,0 -48,-21.49 -48,-48l0,-352c0,-26.51 21.49,-48 48,-48l352,0c26.51,0 48,21.49 48,48l0,352c0,26.478 -21.439,47.949 -48,48Zm-192,-208l-144,0l0,144l144,0l0,-144Zm176,0l-144,0l0,144l144,0l0,-144Zm-256,128l-48,0l0,-112c9.663,0 18.353,5.883 21.942,14.856l15.33,38.323c7.087,17.718 10.728,36.625 10.728,55.708l0,3.113Zm240,0l-48,0l0,-3.113c0,-19.083 3.641,-37.99 10.728,-55.708l15.33,-38.323c3.589,-8.973 12.279,-14.856 21.942,-14.856l0,112Zm16,-304l-144,0l0,144l144,0l0,-144Zm-176,0l-144,0l0,144l144,0l0,-144Zm64,16l96,0l0,112l-17.733,-5.541c-46.563,-14.552 -78.267,-57.675 -78.267,-106.459Zm-96,0c-0.016,48.806 -31.716,91.911 -78.267,106.459l-17.733,5.541l0,-112l96,0Z"></path></svg>

<svg width="448" height="512" viewBox="0 0 448 512" fill="none" xmlns="http://www.w3.org/2000/svg">
<path d="M128 400H80V288C89.6635 288 98.3533 293.883 101.942 302.856L117.272 341.179C124.359 358.897 128 377.804 128 396.887V400Z" fill="black"/>
<path d="M272 112H368V224L350.267 218.459C303.704 203.907 272 160.784 272 112Z" fill="black"/>
<path d="M368 400H320V396.887C320 377.804 323.641 358.897 330.728 341.179L346.058 302.856C349.647 293.883 358.337 288 368 288V400Z" fill="black"/>
<path d="M176 112H80V224L97.7327 218.459C144.296 203.907 176 160.784 176 112Z" fill="black"/>
<path fill-rule="evenodd" clip-rule="evenodd" d="M0 80C0 53.4903 21.4903 32 48 32H400C426.51 32 448 53.4903 448 80V432C448 458.51 426.51 480 400 480H48C21.4903 480 0 458.51 0 432V80ZM64 272V416H208V272H64ZM384 240V96H240V240H384ZM240 272H384V416H240V272ZM208 240V96H64V240H208Z" fill="black"/>
</svg>
